src/main/resources/icons/AllIcons/actions/inlayGear.svg

<!-- Copyright 2000-2021 JetBrains s.r.o. Use of this source code is governed by the Apache 2.0 license that can be found in the LICENSE file. -->
<svg width="12" height="12" viewBox="0 0 12 12" fill="none" xmlns="http://www.w3.org/2000/svg">
<path fill-rule="evenodd" clip-rule="evenodd" d="M11.2337 7.69333L9.98294 6.79597C10.0341 6.53857 10.0609 6.27241 10.0609 5.99998C10.0609 5.72755 10.0341 5.46139 9.98294 5.20398L11.2337 4.30663C10.993 3.56205 10.5978 2.88693 10.086 2.31904L8.68351 2.95172C8.28437 2.59999 7.81562 2.32543 7.30056 2.15135L7.14775 0.620088C6.77733 0.541401 6.39314 0.5 5.99927 0.5C5.60568 0.5 5.22175 0.541343 4.85157 0.619923L4.69876 2.15116C4.18356 2.32519 3.71467 2.59977 3.31542 2.95155L1.9128 2.3188C1.40096 2.88663 1.00578 3.56168 0.765029 4.30618L2.01587 5.20363C1.96468 5.46114 1.93783 5.72743 1.93783 5.99998C1.93783 6.27253 1.96468 6.53881 2.01587 6.79632L0.765015 7.69377C1.00576 8.43828 1.40093 9.11333 1.91277 9.68116L3.31541 9.0484C3.71465 9.40019 4.18355 9.67478 4.69876 9.84881L4.85158 11.3801C5.22175 11.4587 5.60568 11.5 5.99927 11.5C6.39314 11.5 6.77733 11.4586 7.14774 11.3799L7.30056 9.84862C7.81562 9.67454 8.28439 9.39997 8.68352 9.04823L10.086 9.68092C10.5978 9.11303 10.993 8.43791 11.2337 7.69333ZM7.94545 6.0002C7.94545 7.07512 7.07413 7.94652 5.9993 7.94652C4.92447 7.94652 4.05315 7.07512 4.05315 6.0002C4.05315 4.92527 4.92447 4.05387 5.9993 4.05387C7.07413 4.05387 7.94545 4.92527 7.94545 6.0002Z" fill="#7F8B91" fill-opacity="0.9"/>
</svg>

<svg width="12" height="12" viewBox="0 0 12 12" fill="none" xmlns="http://www.w3.org/2000/svg"><rect id="frame" width="12" height="12" fill="none"/><path fill-rule="evenodd" clip-rule="evenodd" d="M11.234 7.693l-1.251-.897a4.08 4.08 0 0 0 0-1.592l1.25-.897a5.495 5.495 0 0 0-1.147-1.988l-1.402.633a4.057 4.057 0 0 0-1.383-.8L7.148.62a5.522 5.522 0 0 0-2.296 0L4.699 2.15a4.057 4.057 0 0 0-1.384.8L1.913 2.32A5.494 5.494 0 0 0 .765 4.306l1.25.898a4.081 4.081 0 0 0 0 1.592l-1.25.898c.24.744.636 1.42 1.148 1.987l1.402-.633c.4.352.869.627 1.384.8l.153 1.532a5.52 5.52 0 0 0 2.296 0L7.3 9.849a4.057 4.057 0 0 0 1.383-.8l1.402.632a5.495 5.495 0 0 0 1.148-1.988zM7.945 6a1.946 1.946 0 1 1-3.892 0 1.946 1.946 0 0 1 3.892 0z" fill="#7F8B91" fill-opacity=".9"/></svg>
